X:124
T:Stabat Mater RV 621 - Stabat Mater
C:Vivaldi, A.
M:3/4
L:1/8
Q:1/4=54
K:Fmin
|:C2|f4 ef|g2 fe d2|e4 de|f4 c2|
f4 ga|b2 ag f2|e4 dc|f4:|

